X: 28743
T: My Heart's Full Of Cheer 'Cause My Belly's Full Of Porter
R: jig
M: 6/8
K: Dmajor
|:D2 E|FGF DEF|G2 F E2 F|D2 B AFE|DEF A2 G|
FGF DFA|dcB A2 B|AGF EFE|D3:|
|:D3|dcd edB|dAF DFA|dcB AFG|A3 ABc|
dcd edc|dAF d2 B|AFD EFE|D3:|

